X: 102
T: Hashoshanah Porachat
C: Ladino 1975
O: Israel
M: 4/4
L: 1/4
Q: 1/4=180
K: Am
  EA2B |cBAc|BA^GF|E4     |\
  EA2B |cBAc|B4   |z2Bc   |
|:dcBd |cBAc|BA^GF|E2z2   |\
  E^GFF|EDEF|E4-  |[1E2^GB|d2z2 :|[2 E2z2|



